X: 1
T: Hana (Blossoms along the River)
T: 8x32S 3C (Alex Gray 2009, Tweeddale 4)
T: 1 CC3, CU, cast; TRH, TLH; set passLsh, cast trn; circle6
P: Hana
R: strathspey
C: Rentaro Taki, from James Gray arr.
M: 4/4
L: 1/8
K: G
R: strathspey
"G"D3 D G3 G|"C"AGFE "G"D4|"G"B,DGA B2 d2|"D"A6 z2|"G"D3 D G3 G|"C"AGEF "G"D4|"D"A3 A A2 B2|"G"G6 z2||
"G"d3 d d3 B|"D"c3 c c3 A|"Em"B4 "A7"E2 A2|"D"D8|"G"D3 D G3 G|"C"AGFE "G"D4|"D"A2 A>B c2 A2|"G"G6 z2 |]

